brandFactory_export/1.Light/Presentacion _1Light.svg

<?xml version="1.0" encoding="UTF-8"?>
<svg width="24px" height="24px" viewBox="0 0 24 24" version="1.1" xmlns="http://www.w3.org/2000/svg" xmlns:xlink="http://www.w3.org/1999/xlink">
    <title>1.Light/Presentacion _1Light</title>
    <g id="Symbols" stroke="none" stroke-width="1" fill="none" fill-rule="evenodd">
        <g id="1.Light/Presentacion-_1Light" fill="#5CB615" fill-rule="nonzero">
            <path d="M21.7596639,6.19495798 C21.7596639,6.19495798 21.8436975,6.18151261 21.8436975,5.85210084 C21.8436975,5.5394958 21.7327731,5.45210084 21.7327731,5.45210084 C21.6823529,5.41176471 21.5680672,5.38487395 21.1915966,5.38487395 L2.51260504,5.38487395 C2.15294118,5.38487395 2.07563025,5.36470588 1.93781513,5.49579832 C1.93445378,5.49579832 1.85714286,5.57983193 1.86039772,5.88907563 C1.86386555,6.17815126 1.99831933,6.25882353 1.99831933,6.25882353 C2.07226891,6.31260504 2.1092437,6.34957983 2.48571429,6.34957983 L21.1714286,6.34957983 C21.5210084,6.34621849 21.7327731,6.23865546 21.7596639,6.19495798 Z M20.8285714,17.7008403 L20.8285714,7.5394958 C20.8319328,7.45882353 20.8016807,7.38487395 20.7445378,7.32773109 C20.6806723,7.26722689 20.5630252,7.25042017 20.4218487,7.2302521 L3.23193277,7.2302521 C3.02016807,7.26722689 2.84537815,7.38823529 2.84537815,7.5394958 L2.84537815,17.7142857 C2.84537815,17.7915966 2.87226891,17.8655462 2.9394958,17.9159664 C3.02352941,17.9932773 3.17142857,18.0201681 3.36302521,18.0201681 L20.3546218,18.0302521 C20.6,18.0302521 20.8285714,17.8789916 20.8285714,17.7008403 Z M12.3747899,22.2285714 C12.3747899,22.087395 12.3747899,21.7243697 11.8672269,21.7176471 L11.7831933,21.7176471 C11.292437,21.7176471 11.292437,22.087395 11.292437,22.2285714 C11.292437,22.3596639 11.292437,22.7394958 11.789916,22.7394958 C12.3747899,22.7327731 12.3747899,22.3697479 12.3747899,22.2285714 L12.3747899,22.2285714 Z M11.1680672,2.65546218 L7.70252101,4.50084034 L15.7865546,4.50084034 L12.5495798,2.63865546 C12.3478992,2.73613445 12.1159664,2.78991597 11.8941176,2.79663866 L11.7932773,2.79663866 C11.5781513,2.78991597 11.3663866,2.74285714 11.1680672,2.65546218 L11.1680672,2.65546218 Z M11.7865546,0.880672269 C11.2957983,0.880672269 11.2957983,1.25042017 11.2957983,1.39495798 C11.2957983,1.5394958 11.2957983,1.90588235 11.8033613,1.91596639 C12.3747899,1.9092437 12.3747899,1.5394958 12.3747899,1.40504202 C12.3747899,1.26386555 12.3747899,0.894117647 11.8672269,0.884033613 C11.8705882,0.880672269 11.7865546,0.880672269 11.7865546,0.880672269 L11.7865546,0.880672269 Z M22.3983193,4.86386555 C22.5630252,5.02184874 22.6638655,5.23361345 22.6638655,5.44537815 L22.6638655,6.27563025 C22.6638655,6.71596639 22.2672269,7.05210084 21.6789916,7.17647059 C21.7159664,7.2907563 21.7529412,7.40504202 21.7529412,7.52941176 L21.7529412,17.7042017 C21.7529412,18.3731092 21.1277311,18.9109244 20.3512605,18.9109244 L12.3042017,18.9109244 L12.3042017,20.907563 C12.8588235,21.0588235 13.2991597,21.4890756 13.2991597,22.2319328 C13.2991597,23.1764706 12.589916,23.6168067 11.9008403,23.6268908 L11.7798319,23.6268908 C11.087395,23.6168067 10.3781513,23.1865546 10.3781513,22.2319328 C10.3781513,21.4655462 10.8386555,21.0319328 11.3831933,20.8907563 L11.3831933,18.9142857 L3.38319328,18.9042017 C2.8487395,18.9411765 2.48907563,18.7294118 2.30420168,18.5613445 C2.06554622,18.3428571 1.92773109,18.0369748 1.92436975,17.7142857 L1.92436975,7.53613445 C1.92436975,7.41176471 1.96134454,7.28739496 1.99831933,7.18319328 C1.70252101,7.12268908 1.45378151,7.02521008 1.28907563,6.86722689 C1.1210084,6.71932773 1.02016807,6.50756303 1.01008403,6.28571429 L1.02016807,5.45546218 C1.02016807,4.90084034 1.6487395,4.50420168 2.51596639,4.50420168 L5.80672269,4.50420168 L10.4991597,2.00672269 C10.4184874,1.81512605 10.3747899,1.60672269 10.3781513,1.39831933 C10.3781513,0.443697479 11.087395,0.0134453782 11.789916,0.00336134454 L11.9008403,0.00336134454 C12.5932773,0.0235294118 13.2991597,0.463865546 13.2991597,1.40504202 C13.2991597,1.61680672 13.2621849,1.81176471 13.1882353,1.97983193 L17.5680672,4.50420168 L21.1176471,4.50420168 C21.6789916,4.48403361 22.1193277,4.61512605 22.3983193,4.86386555 L22.3983193,4.86386555 Z M16.0453782,15.4084034 C16.2941176,15.4084034 16.5058824,15.610084 16.5058824,15.8487395 C16.4991597,16.097479 16.2941176,16.2957983 16.0453782,16.2890756 L6.36470588,16.2890756 C6.11596639,16.292437 5.91092437,16.097479 5.90420168,15.8487395 L5.90420168,9.96302521 C5.90420168,9.72436975 6.11596639,9.52264626 6.36470588,9.52264626 C6.61344538,9.51932773 6.81848739,9.71428571 6.82521008,9.96302521 L6.82521008,14.7092437 L8.38151261,12.3865546 C8.49915966,12.2016807 8.73109244,12.1277311 8.93613445,12.2084034 L12.0991597,13.3815126 L14.2201681,10.8235294 L13.5848739,10.8235294 C13.3394958,10.8302521 13.1310924,10.6386555 13.1243697,10.3932773 L13.1243697,10.3831933 C13.1243697,10.1344538 13.3260504,9.94285714 13.5848739,9.94285714 L15.2252101,9.94285714 C15.4470588,9.94285714 15.6420168,10.1008403 15.6789916,10.312605 L15.9008403,11.7344538 C15.9478992,11.9697479 15.7731092,12.1915966 15.5142857,12.2352941 L15.4504202,12.2352941 C15.2285714,12.2352941 15.0268908,12.0773109 14.9966387,11.8655462 L14.9260504,11.4084034 L12.6134454,14.1882353 C12.4857143,14.3428571 12.2739496,14.3966387 12.0890756,14.3294118 L8.96302521,13.1663866 L7.45378151,15.4084034 L16.0453782,15.4084034 L16.0453782,15.4084034 Z" id="Presentacion-_1Light"></path>
        </g>
    </g>
</svg>

<svg width="24" height="24" viewBox="0 0 24 24" xmlns="http://www.w3.org/2000/svg"><path d="M21.76 6.195s.084-.013.084-.343c0-.313-.111-.4-.111-.4-.05-.04-.165-.067-.541-.067H2.512c-.36 0-.436-.02-.574.11-.004 0-.08.085-.078.394.004.29.138.37.138.37.074.054.111.09.488.09H21.17c.35-.003.562-.11.589-.154zm-.931 11.506V7.539a.279.279 0 00-.084-.211c-.064-.06-.182-.078-.323-.098H3.232c-.212.037-.387.158-.387.31v10.174c0 .078.027.152.094.202.085.077.232.104.424.104l16.992.01c.245 0 .474-.151.474-.33zm-8.454 4.528c0-.142 0-.505-.508-.511h-.084c-.49 0-.49.37-.49.51 0 .132 0 .511.497.511.585-.006.585-.37.585-.51zM11.168 2.655L7.703 4.501h8.084L12.55 2.639a1.648 1.648 0 01-.656.158h-.1a1.677 1.677 0 01-.626-.142zm.619-1.774c-.491 0-.491.37-.491.514 0 .144 0 .51.507.521.572-.007.572-.377.572-.511 0-.141 0-.51-.508-.521.004-.003-.08-.003-.08-.003zm10.611 3.983c.165.158.266.37.266.581v.83c0 .441-.397.777-.985.901.037.115.074.229.074.353v10.175c0 .67-.625 1.207-1.402 1.207h-8.047v1.997c.555.15.995.581.995 1.324 0 .944-.71 1.385-1.398 1.395h-.121c-.693-.01-1.402-.44-1.402-1.395 0-.766.46-1.2 1.005-1.341v-1.977l-8-.01c-.534.037-.894-.175-1.079-.343a1.165 1.165 0 01-.38-.847V7.536c0-.124.037-.249.074-.353-.295-.06-.544-.158-.709-.316a.828.828 0 01-.279-.581l.01-.83c0-.555.629-.952 1.496-.952h3.29L10.5 2.007c-.08-.192-.124-.4-.12-.609 0-.954.708-1.385 1.41-1.395h.112c.692.02 1.398.46 1.398 1.402 0 .212-.037.407-.11.575l4.38 2.524h3.549c.561-.02 1.001.111 1.28.36zm-6.353 10.544c.25 0 .46.202.46.44a.45.45 0 01-.46.441h-9.68a.453.453 0 01-.46-.44V9.963c0-.239.211-.44.46-.44a.453.453 0 01.46.44v4.746l1.557-2.322a.457.457 0 01.554-.179l3.163 1.174 2.121-2.558h-.635a.446.446 0 01-.46-.43v-.01c0-.25.201-.441.46-.441h1.64a.46.46 0 01.454.37l.222 1.421c.047.236-.128.458-.387.501h-.064c-.221 0-.423-.158-.453-.37l-.07-.457-2.314 2.78a.472.472 0 01-.524.141l-3.126-1.163-1.51 2.242h8.592z" fill="#5CB615" fill-rule="nonzero"/></svg>
